icons/product/spireKey/light.svg

<svg data-style="kdacolor" width="193" height="64" viewBox="0 0 193 64" fill="none"
  xmlns="http://www.w3.org/2000/svg">
  <path id="{kda.foundation.color.icon.brand.logo.default}" d="M31.5043 42.9968L36.174 45.3092L32.5165 47.9671L31.5043 42.9968Z" fill="#4A9079"/>
  <path id="{kda.foundation.color.icon.brand.logo.default}" d="M43.3304 40.1103L30.6171 38.6417L29.9799 35.5119L41.836 35.5112L43.3304 40.1103Z" fill="#4A9079"/>
  <path id="{kda.foundation.color.icon.brand.logo.default}" d="M15.1556 45.3085L19.8327 42.9968L18.833 47.9811L15.1556 45.3085Z" fill="#4A9079"/>
  <path id="{kda.foundation.color.icon.brand.logo.default}" d="M20.7066 38.6417L8 40.1103L9.4936 35.5119H21.3343L20.7066 38.6417Z" fill="#4A9079"/>
  <path id="{kda.foundation.color.icon.brand.logo.default}" d="M39.4222 28.0821L29.9799 35.5119L25.6571 34.0256L21.3343 35.5119L11.9053 28.0902L13.3173 23.7447L20.7 28.7054L23.452 33.7838V19.3432H27.8622V33.3766L30.6142 28.7054L38.0109 23.7395L39.4222 28.0821Z" fill="#4A9079"/>
  <path id="{kda.foundation.color.text.brand.wordmark.default}" d="M50.1622 15.9311V10.527H50.9892V12.7731H51.1168C51.4529 12.401 52.1223 11.6527 53.1251 10.527H54.208C53.8018 10.9746 52.9928 11.8612 51.7789 13.1873C52.1998 13.6443 53.0396 14.5589 54.2982 15.9311H53.1779C52.8371 15.549 52.1497 14.7853 51.1175 13.6396H50.9899V15.9311H50.1628H50.1622Z" fill="#0F0F0F"/>
  <path id="{kda.foundation.color.text.brand.wordmark.default}" d="M54.5234 15.9311C54.7792 15.0319 55.2903 13.2301 56.0573 10.527H57.5237C57.7796 11.4263 58.2907 13.2281 59.0576 15.9311H58.2005C58.1403 15.72 58.0221 15.2958 57.8471 14.6571H55.7339C55.6791 14.8675 55.5609 15.2924 55.3805 15.9311H54.5234ZM55.945 13.8888H57.6373C57.507 13.4118 57.2458 12.4644 56.8556 11.0475H56.728C56.5978 11.5198 56.3372 12.4671 55.9464 13.8888H55.945Z" fill="#0F0F0F"/>
  <path id="{kda.foundation.color.text.brand.wordmark.default}" d="M59.5854 15.9311V10.527H61.7433C62.4601 10.527 63.0093 10.7107 63.3901 11.0769C63.7756 11.4436 63.9693 11.9941 63.9693 12.727V13.7371C63.9693 14.476 63.7762 15.0258 63.3901 15.3873C63.0093 15.7487 62.4601 15.9298 61.7433 15.9298H59.5854V15.9311ZM60.4272 15.1775H61.7506C62.2169 15.1775 62.5623 15.0599 62.7888 14.8234C63.0146 14.5822 63.1269 14.2282 63.1269 13.7605V12.6976C63.1269 12.2253 63.014 11.8732 62.7888 11.642C62.563 11.4116 62.2176 11.2953 61.7506 11.2953H60.4272V15.1775Z" fill="#0F0F0F"/>
  <path id="{kda.foundation.color.text.brand.wordmark.default}" d="M64.9086 15.9311V10.527H68.3005V11.2886H65.7364V12.8339H68.0907V13.5955H65.7364V15.1782H68.3385V15.9324H64.9093L64.9086 15.9311Z" fill="#0F0F0F"/>
  <path id="{kda.foundation.color.text.brand.wordmark.default}" d="M69.2111 15.9311V10.527H70.8131C71.0536 11.3361 71.54 12.9515 72.2722 15.3732H72.3998V10.527H73.2195V15.9311H71.6175C71.377 15.1221 70.8906 13.504 70.1584 11.0769H70.0308V15.9311H69.2111Z" fill="#0F0F0F"/>
  <path id="{kda.foundation.color.text.brand.wordmark.default}" d="M73.9477 15.9311C74.2036 15.0319 74.7146 13.2301 75.4816 10.527H76.948C77.2039 11.4263 77.715 13.2281 78.4819 15.9311H77.6248C77.5647 15.72 77.4464 15.2958 77.2714 14.6571H75.1589C75.1041 14.8675 74.9859 15.2924 74.8055 15.9311H73.9484H73.9477ZM75.3687 13.8888H77.0609C76.9307 13.4118 76.6701 12.4644 76.2793 11.0475H76.1517C76.0214 11.5198 75.7609 12.4671 75.37 13.8888H75.3687Z" fill="#0F0F0F"/>
  <path id="{kda.foundation.color.text.brand.wordmark.default}" d="M57.6718 44.921C55.9438 44.921 54.4185 44.6116 53.0958 43.993C51.7731 43.3743 50.7385 42.489 49.9918 41.337C49.2451 40.185 48.8718 38.7983 48.8718 37.177V36.281H53.0318V37.177C53.0318 38.521 53.4478 39.5343 54.2798 40.217C55.1118 40.8783 56.2425 41.209 57.6718 41.209C59.1225 41.209 60.1998 40.921 60.9038 40.345C61.6291 39.769 61.9918 39.033 61.9918 38.137C61.9918 37.5183 61.8105 37.017 61.4478 36.633C61.1065 36.249 60.5945 35.9396 59.9118 35.705C59.2505 35.449 58.4398 35.2143 57.4798 35.001L56.7438 34.841C55.2078 34.4996 53.8851 34.073 52.7758 33.561C51.6878 33.0276 50.8451 32.3343 50.2478 31.481C49.6718 30.6276 49.3838 29.5183 49.3838 28.153C49.3838 26.7876 49.7038 25.625 50.3438 24.665C51.0051 23.6836 51.9225 22.937 53.0958 22.425C54.2905 21.8916 55.6878 21.625 57.2878 21.625C58.8878 21.625 60.3065 21.9023 61.5438 22.457C62.8025 22.9903 63.7838 23.801 64.4878 24.889C65.2131 25.9556 65.5758 27.2996 65.5758 28.921V29.881H61.4158V28.921C61.4158 28.0676 61.2451 27.385 60.9038 26.873C60.5838 26.3396 60.1145 25.9556 59.4958 25.721C58.8771 25.465 58.1411 25.337 57.2878 25.337C56.0078 25.337 55.0585 25.5823 54.4398 26.073C53.8425 26.5423 53.5438 27.193 53.5438 28.025C53.5438 28.5796 53.6825 29.049 53.9598 29.433C54.2585 29.817 54.6958 30.137 55.2718 30.393C55.8478 30.649 56.5838 30.873 57.4798 31.065L58.2158 31.225C59.8158 31.5663 61.2025 32.0036 62.3758 32.537C63.5705 33.0703 64.4985 33.7743 65.1598 34.649C65.8211 35.5236 66.1518 36.6436 66.1518 38.009C66.1518 39.3743 65.7998 40.5796 65.0958 41.625C64.4131 42.649 63.4318 43.4596 62.1518 44.057C60.8931 44.633 59.3998 44.921 57.6718 44.921ZM69.4301 50.873V28.601H73.3981V30.521H73.9741C74.3367 29.9023 74.9021 29.3583 75.6701 28.889C76.4381 28.3983 77.5367 28.153 78.9661 28.153C80.2461 28.153 81.4301 28.473 82.5181 29.113C83.6061 29.7316 84.4807 30.649 85.1421 31.865C85.8034 33.081 86.1341 34.553 86.1341 36.281V36.793C86.1341 38.521 85.8034 39.993 85.1421 41.209C84.4807 42.425 83.6061 43.353 82.5181 43.993C81.4301 44.6116 80.2461 44.921 78.9661 44.921C78.0061 44.921 77.1954 44.8036 76.5341 44.569C75.8941 44.3556 75.3714 44.0783 74.9661 43.737C74.5821 43.3743 74.2727 43.0116 74.0381 42.649H73.4621V50.873H69.4301ZM77.7501 41.401C79.0087 41.401 80.0434 41.0063 80.8541 40.217C81.6861 39.4063 82.1021 38.233 82.1021 36.697V36.377C82.1021 34.841 81.6861 33.6783 80.8541 32.889C80.0221 32.0783 78.9874 31.673 77.7501 31.673C76.5127 31.673 75.4781 32.0783 74.6461 32.889C73.8141 33.6783 73.3981 34.841 73.3981 36.377V36.697C73.3981 38.233 73.8141 39.4063 74.6461 40.217C75.4781 41.0063 76.5127 41.401 77.7501 41.401ZM89.8363 44.473V28.601H93.8683V44.473H89.8363ZM91.8523 26.745C91.127 26.745 90.5083 26.5103 89.9963 26.041C89.5056 25.5716 89.2603 24.953 89.2603 24.185C89.2603 23.417 89.5056 22.7983 89.9963 22.329C90.5083 21.8596 91.127 21.625 91.8523 21.625C92.599 21.625 93.2176 21.8596 93.7083 22.329C94.199 22.7983 94.4443 23.417 94.4443 24.185C94.4443 24.953 94.199 25.5716 93.7083 26.041C93.2176 26.5103 92.599 26.745 91.8523 26.745ZM98.3363 44.473V28.601H102.304V30.393H102.88C103.115 29.753 103.499 29.2836 104.032 28.985C104.587 28.6863 105.227 28.537 105.952 28.537H107.872V32.121H105.888C104.864 32.121 104.022 32.3983 103.36 32.953C102.699 33.4863 102.368 34.3183 102.368 35.449V44.473H98.3363ZM117.693 44.921C116.115 44.921 114.717 44.5903 113.501 43.929C112.307 43.2463 111.368 42.297 110.685 41.081C110.024 39.8436 109.693 38.393 109.693 36.729V36.345C109.693 34.681 110.024 33.241 110.685 32.025C111.347 30.7876 112.275 29.8383 113.469 29.177C114.664 28.4943 116.051 28.153 117.629 28.153C119.187 28.153 120.541 28.505 121.693 29.209C122.845 29.8916 123.741 30.8516 124.381 32.089C125.021 33.305 125.341 34.7236 125.341 36.345V37.721H113.789C113.832 38.809 114.237 39.6943 115.005 40.377C115.773 41.0596 116.712 41.401 117.821 41.401C118.952 41.401 119.784 41.1556 120.317 40.665C120.851 40.1743 121.256 39.6303 121.533 39.033L124.829 40.761C124.531 41.3156 124.093 41.9236 123.517 42.585C122.963 43.225 122.216 43.7796 121.277 44.249C120.339 44.697 119.144 44.921 117.693 44.921ZM113.821 34.713H121.245C121.16 33.7956 120.787 33.0596 120.125 32.505C119.485 31.9503 118.643 31.673 117.597 31.673C116.509 31.673 115.645 31.9503 115.005 32.505C114.365 33.0596 113.971 33.7956 113.821 34.713ZM128.802 44.473V22.073H133.026V30.969H133.602L140.866 22.073H146.274L136.93 33.113L146.594 44.473H141.026L133.602 35.385H133.026V44.473H128.802ZM155.725 44.921C154.146 44.921 152.749 44.5903 151.533 43.929C150.338 43.2463 149.399 42.297 148.717 41.081C148.055 39.8436 147.725 38.393 147.725 36.729V36.345C147.725 34.681 148.055 33.241 148.717 32.025C149.378 30.7876 150.306 29.8383 151.501 29.177C152.695 28.4943 154.082 28.153 155.661 28.153C157.218 28.153 158.573 28.505 159.725 29.209C160.877 29.8916 161.773 30.8516 162.413 32.089C163.053 33.305 163.373 34.7236 163.373 36.345V37.721H151.821C151.863 38.809 152.269 39.6943 153.037 40.377C153.805 41.0596 154.743 41.401 155.853 41.401C156.983 41.401 157.815 41.1556 158.349 40.665C158.882 40.1743 159.287 39.6303 159.565 39.033L162.861 40.761C162.562 41.3156 162.125 41.9236 161.549 42.585C160.994 43.225 160.247 43.7796 159.309 44.249C158.37 44.697 157.175 44.921 155.725 44.921ZM151.853 34.713H159.277C159.191 33.7956 158.818 33.0596 158.157 32.505C157.517 31.9503 156.674 31.673 155.629 31.673C154.541 31.673 153.677 31.9503 153.037 32.505C152.397 33.0596 152.002 33.7956 151.853 34.713ZM168.689 50.873V47.353H177.329C177.927 47.353 178.225 47.033 178.225 46.393V42.393H177.649C177.479 42.7556 177.212 43.1183 176.849 43.481C176.487 43.8436 175.996 44.1423 175.377 44.377C174.759 44.6116 173.969 44.729 173.009 44.729C171.772 44.729 170.684 44.4516 169.745 43.897C168.828 43.321 168.113 42.5316 167.601 41.529C167.089 40.5263 166.833 39.3743 166.833 38.073V28.601H170.865V37.753C170.865 38.9476 171.153 39.8436 171.729 40.441C172.327 41.0383 173.169 41.337 174.257 41.337C175.495 41.337 176.455 40.9316 177.137 40.121C177.82 39.289 178.161 38.137 178.161 36.665V28.601H182.193V47.289C182.193 48.377 181.873 49.241 181.233 49.881C180.593 50.5423 179.74 50.873 178.673 50.873H168.689Z" fill="#0F0F0F"/>
</svg>

<svg data-style="kdacolor" width="193" height="64" viewBox="0 0 193 64" fill="none"
  xmlns="http://www.w3.org/2000/svg">
  <path id="{kda.foundation.color.icon.brand.logo.default}" d="M15.2,45.3l4.7-2.3-1,5-3.7-2.7Z" fill="#4A9079"/>
  <path id="{kda.foundation.color.icon.brand.logo.default}" d="M20.7,38.6l-12.7,1.5,1.5-4.6h11.8l-.6,3.1Z" fill="#4A9079"/>
  <polygon id="{kda.foundation.color.icon.brand.logo.default}" points="23.5 33.8 22.1 31.2 23.5 33.8 23.5 33.8" fill="#4A9079"/>
  <polygon id="{kda.foundation.color.icon.brand.logo.default}" points="20.7 28.7 20.7 28.7 22.1 31.2 20.7 28.7" fill="#4A9079"/>
  <path id="{kda.foundation.color.icon.brand.logo.default}" d="M32.5,48l-1-5,4.7,2.3-3.7,2.7Z" fill="#4A9079"/>
  <path id="{kda.foundation.color.icon.brand.logo.default}" d="M30,35.5h11.8s1.5,4.6,1.5,4.6l-12.7-1.5-.6-3.1Z" fill="#4A9079"/>
  <polygon id="{kda.foundation.color.icon.brand.logo.default}" points="27.9 33.8 29.3 31.2 27.9 33.8 27.9 33.8" fill="#4A9079"/>
  <polygon id="{kda.foundation.color.icon.brand.logo.default}" points="30.6 28.7 30.6 28.7 29.3 31.2 30.6 28.7" fill="#4A9079"/>
  <polygon id="{kda.foundation.color.icon.brand.logo.default}" points="23.5 19.3 23.5 33.8 23.9 34.6 25.7 34 27.4 34.6 27.9 33.8 27.9 19.3 23.5 19.3" fill="#4A9079"/>
  <polygon id="{kda.foundation.color.icon.brand.logo.default}" points="30.6 28.7 38 23.7 39.4 28.1 30 35.5 27.4 34.6 30.6 28.7" fill="#4A9079"/>
  <polygon id="{kda.foundation.color.icon.brand.logo.default}" points="20.7 28.7 13.3 23.7 11.9 28.1 21.4 35.5 23.9 34.6 20.7 28.7" fill="#4A9079"/>
  <path id="{kda.foundation.color.text.brand.wordmark.default}" d="M50.1622 15.9311V10.527H50.9892V12.7731H51.1168C51.4529 12.401 52.1223 11.6527 53.1251 10.527H54.208C53.8018 10.9746 52.9928 11.8612 51.7789 13.1873C52.1998 13.6443 53.0396 14.5589 54.2982 15.9311H53.1779C52.8371 15.549 52.1497 14.7853 51.1175 13.6396H50.9899V15.9311H50.1628H50.1622Z" fill="#0F0F0F"/>
  <path id="{kda.foundation.color.text.brand.wordmark.default}" d="M54.5234 15.9311C54.7792 15.0319 55.2903 13.2301 56.0573 10.527H57.5237C57.7796 11.4263 58.2907 13.2281 59.0576 15.9311H58.2005C58.1403 15.72 58.0221 15.2958 57.8471 14.6571H55.7339C55.6791 14.8675 55.5609 15.2924 55.3805 15.9311H54.5234ZM55.945 13.8888H57.6373C57.507 13.4118 57.2458 12.4644 56.8556 11.0475H56.728C56.5978 11.5198 56.3372 12.4671 55.9464 13.8888H55.945Z" fill="#0F0F0F"/>
  <path id="{kda.foundation.color.text.brand.wordmark.default}" d="M59.5854 15.9311V10.527H61.7433C62.4601 10.527 63.0093 10.7107 63.3901 11.0769C63.7756 11.4436 63.9693 11.9941 63.9693 12.727V13.7371C63.9693 14.476 63.7762 15.0258 63.3901 15.3873C63.0093 15.7487 62.4601 15.9298 61.7433 15.9298H59.5854V15.9311ZM60.4272 15.1775H61.7506C62.2169 15.1775 62.5623 15.0599 62.7888 14.8234C63.0146 14.5822 63.1269 14.2282 63.1269 13.7605V12.6976C63.1269 12.2253 63.014 11.8732 62.7888 11.642C62.563 11.4116 62.2176 11.2953 61.7506 11.2953H60.4272V15.1775Z" fill="#0F0F0F"/>
  <path id="{kda.foundation.color.text.brand.wordmark.default}" d="M64.9086 15.9311V10.527H68.3005V11.2886H65.7364V12.8339H68.0907V13.5955H65.7364V15.1782H68.3385V15.9324H64.9093L64.9086 15.9311Z" fill="#0F0F0F"/>
  <path id="{kda.foundation.color.text.brand.wordmark.default}" d="M69.2111 15.9311V10.527H70.8131C71.0536 11.3361 71.54 12.9515 72.2722 15.3732H72.3998V10.527H73.2195V15.9311H71.6175C71.377 15.1221 70.8906 13.504 70.1584 11.0769H70.0308V15.9311H69.2111Z" fill="#0F0F0F"/>
  <path id="{kda.foundation.color.text.brand.wordmark.default}" d="M73.9477 15.9311C74.2036 15.0319 74.7146 13.2301 75.4816 10.527H76.948C77.2039 11.4263 77.715 13.2281 78.4819 15.9311H77.6248C77.5647 15.72 77.4464 15.2958 77.2714 14.6571H75.1589C75.1041 14.8675 74.9859 15.2924 74.8055 15.9311H73.9484H73.9477ZM75.3687 13.8888H77.0609C76.9307 13.4118 76.6701 12.4644 76.2793 11.0475H76.1517C76.0214 11.5198 75.7609 12.4671 75.37 13.8888H75.3687Z" fill="#0F0F0F"/>
  <path id="{kda.foundation.color.text.brand.wordmark.default}" d="M57.6718 44.921C55.9438 44.921 54.4185 44.6116 53.0958 43.993C51.7731 43.3743 50.7385 42.489 49.9918 41.337C49.2451 40.185 48.8718 38.7983 48.8718 37.177V36.281H53.0318V37.177C53.0318 38.521 53.4478 39.5343 54.2798 40.217C55.1118 40.8783 56.2425 41.209 57.6718 41.209C59.1225 41.209 60.1998 40.921 60.9038 40.345C61.6291 39.769 61.9918 39.033 61.9918 38.137C61.9918 37.5183 61.8105 37.017 61.4478 36.633C61.1065 36.249 60.5945 35.9396 59.9118 35.705C59.2505 35.449 58.4398 35.2143 57.4798 35.001L56.7438 34.841C55.2078 34.4996 53.8851 34.073 52.7758 33.561C51.6878 33.0276 50.8451 32.3343 50.2478 31.481C49.6718 30.6276 49.3838 29.5183 49.3838 28.153C49.3838 26.7876 49.7038 25.625 50.3438 24.665C51.0051 23.6836 51.9225 22.937 53.0958 22.425C54.2905 21.8916 55.6878 21.625 57.2878 21.625C58.8878 21.625 60.3065 21.9023 61.5438 22.457C62.8025 22.9903 63.7838 23.801 64.4878 24.889C65.2131 25.9556 65.5758 27.2996 65.5758 28.921V29.881H61.4158V28.921C61.4158 28.0676 61.2451 27.385 60.9038 26.873C60.5838 26.3396 60.1145 25.9556 59.4958 25.721C58.8771 25.465 58.1411 25.337 57.2878 25.337C56.0078 25.337 55.0585 25.5823 54.4398 26.073C53.8425 26.5423 53.5438 27.193 53.5438 28.025C53.5438 28.5796 53.6825 29.049 53.9598 29.433C54.2585 29.817 54.6958 30.137 55.2718 30.393C55.8478 30.649 56.5838 30.873 57.4798 31.065L58.2158 31.225C59.8158 31.5663 61.2025 32.0036 62.3758 32.537C63.5705 33.0703 64.4985 33.7743 65.1598 34.649C65.8211 35.5236 66.1518 36.6436 66.1518 38.009C66.1518 39.3743 65.7998 40.5796 65.0958 41.625C64.4131 42.649 63.4318 43.4596 62.1518 44.057C60.8931 44.633 59.3998 44.921 57.6718 44.921ZM69.4301 50.873V28.601H73.3981V30.521H73.9741C74.3367 29.9023 74.9021 29.3583 75.6701 28.889C76.4381 28.3983 77.5367 28.153 78.9661 28.153C80.2461 28.153 81.4301 28.473 82.5181 29.113C83.6061 29.7316 84.4807 30.649 85.1421 31.865C85.8034 33.081 86.1341 34.553 86.1341 36.281V36.793C86.1341 38.521 85.8034 39.993 85.1421 41.209C84.4807 42.425 83.6061 43.353 82.5181 43.993C81.4301 44.6116 80.2461 44.921 78.9661 44.921C78.0061 44.921 77.1954 44.8036 76.5341 44.569C75.8941 44.3556 75.3714 44.0783 74.9661 43.737C74.5821 43.3743 74.2727 43.0116 74.0381 42.649H73.4621V50.873H69.4301ZM77.7501 41.401C79.0087 41.401 80.0434 41.0063 80.8541 40.217C81.6861 39.4063 82.1021 38.233 82.1021 36.697V36.377C82.1021 34.841 81.6861 33.6783 80.8541 32.889C80.0221 32.0783 78.9874 31.673 77.7501 31.673C76.5127 31.673 75.4781 32.0783 74.6461 32.889C73.8141 33.6783 73.3981 34.841 73.3981 36.377V36.697C73.3981 38.233 73.8141 39.4063 74.6461 40.217C75.4781 41.0063 76.5127 41.401 77.7501 41.401ZM89.8363 44.473V28.601H93.8683V44.473H89.8363ZM91.8523 26.745C91.127 26.745 90.5083 26.5103 89.9963 26.041C89.5056 25.5716 89.2603 24.953 89.2603 24.185C89.2603 23.417 89.5056 22.7983 89.9963 22.329C90.5083 21.8596 91.127 21.625 91.8523 21.625C92.599 21.625 93.2176 21.8596 93.7083 22.329C94.199 22.7983 94.4443 23.417 94.4443 24.185C94.4443 24.953 94.199 25.5716 93.7083 26.041C93.2176 26.5103 92.599 26.745 91.8523 26.745ZM98.3363 44.473V28.601H102.304V30.393H102.88C103.115 29.753 103.499 29.2836 104.032 28.985C104.587 28.6863 105.227 28.537 105.952 28.537H107.872V32.121H105.888C104.864 32.121 104.022 32.3983 103.36 32.953C102.699 33.4863 102.368 34.3183 102.368 35.449V44.473H98.3363ZM117.693 44.921C116.115 44.921 114.717 44.5903 113.501 43.929C112.307 43.2463 111.368 42.297 110.685 41.081C110.024 39.8436 109.693 38.393 109.693 36.729V36.345C109.693 34.681 110.024 33.241 110.685 32.025C111.347 30.7876 112.275 29.8383 113.469 29.177C114.664 28.4943 116.051 28.153 117.629 28.153C119.187 28.153 120.541 28.505 121.693 29.209C122.845 29.8916 123.741 30.8516 124.381 32.089C125.021 33.305 125.341 34.7236 125.341 36.345V37.721H113.789C113.832 38.809 114.237 39.6943 115.005 40.377C115.773 41.0596 116.712 41.401 117.821 41.401C118.952 41.401 119.784 41.1556 120.317 40.665C120.851 40.1743 121.256 39.6303 121.533 39.033L124.829 40.761C124.531 41.3156 124.093 41.9236 123.517 42.585C122.963 43.225 122.216 43.7796 121.277 44.249C120.339 44.697 119.144 44.921 117.693 44.921ZM113.821 34.713H121.245C121.16 33.7956 120.787 33.0596 120.125 32.505C119.485 31.9503 118.643 31.673 117.597 31.673C116.509 31.673 115.645 31.9503 115.005 32.505C114.365 33.0596 113.971 33.7956 113.821 34.713ZM128.802 44.473V22.073H133.026V30.969H133.602L140.866 22.073H146.274L136.93 33.113L146.594 44.473H141.026L133.602 35.385H133.026V44.473H128.802ZM155.725 44.921C154.146 44.921 152.749 44.5903 151.533 43.929C150.338 43.2463 149.399 42.297 148.717 41.081C148.055 39.8436 147.725 38.393 147.725 36.729V36.345C147.725 34.681 148.055 33.241 148.717 32.025C149.378 30.7876 150.306 29.8383 151.501 29.177C152.695 28.4943 154.082 28.153 155.661 28.153C157.218 28.153 158.573 28.505 159.725 29.209C160.877 29.8916 161.773 30.8516 162.413 32.089C163.053 33.305 163.373 34.7236 163.373 36.345V37.721H151.821C151.863 38.809 152.269 39.6943 153.037 40.377C153.805 41.0596 154.743 41.401 155.853 41.401C156.983 41.401 157.815 41.1556 158.349 40.665C158.882 40.1743 159.287 39.6303 159.565 39.033L162.861 40.761C162.562 41.3156 162.125 41.9236 161.549 42.585C160.994 43.225 160.247 43.7796 159.309 44.249C158.37 44.697 157.175 44.921 155.725 44.921ZM151.853 34.713H159.277C159.191 33.7956 158.818 33.0596 158.157 32.505C157.517 31.9503 156.674 31.673 155.629 31.673C154.541 31.673 153.677 31.9503 153.037 32.505C152.397 33.0596 152.002 33.7956 151.853 34.713ZM168.689 50.873V47.353H177.329C177.927 47.353 178.225 47.033 178.225 46.393V42.393H177.649C177.479 42.7556 177.212 43.1183 176.849 43.481C176.487 43.8436 175.996 44.1423 175.377 44.377C174.759 44.6116 173.969 44.729 173.009 44.729C171.772 44.729 170.684 44.4516 169.745 43.897C168.828 43.321 168.113 42.5316 167.601 41.529C167.089 40.5263 166.833 39.3743 166.833 38.073V28.601H170.865V37.753C170.865 38.9476 171.153 39.8436 171.729 40.441C172.327 41.0383 173.169 41.337 174.257 41.337C175.495 41.337 176.455 40.9316 177.137 40.121C177.82 39.289 178.161 38.137 178.161 36.665V28.601H182.193V47.289C182.193 48.377 181.873 49.241 181.233 49.881C180.593 50.5423 179.74 50.873 178.673 50.873H168.689Z" fill="#0F0F0F"/>
</svg>
